X: 12799
T: Feargan
R: reel
M: 4/4
K: Aminor
cAAG E/E/E Ed|cAAB cded|cAAG E/E/E DE|{D}G2 Ge dcBd:|
~c2 cd eage|~c2 ce dcBd|~c2 cd e^fge|abag egdB|
c2 cd eage|c2 ce dcBG|ABcd e^fge|abag egde||

